X: 1
T: Da Fields O' Foula
M: 6/8
L: 1/8
R: jig
K: Dmaj
|:g|(f2g) afd|(g2f) e2g|f2g afd|(f2a)f2d|
(f2g) afd|g2(fe2A)|A2A def|d2 d d2:|
(B|:A2)A F2A|d2f ecA|def ecA|BAF D2 F/2F/2|
E2E F2A|d2f ecA|def ecA|1d3 d2g:|2d3 d3||
